static/img/logoseul.svg

<?xml version="1.0" encoding="UTF-8" standalone="no"?>
<svg
   xmlns:dc="http://purl.org/dc/elements/1.1/"
   xmlns:cc="http://creativecommons.org/ns#"
   xmlns:rdf="http://www.w3.org/1999/02/22-rdf-syntax-ns#"
   xmlns:svg="http://www.w3.org/2000/svg"
   xmlns="http://www.w3.org/2000/svg"
   xmlns:sodipodi="http://sodipodi.sourceforge.net/DTD/sodipodi-0.dtd"
   xmlns:inkscape="http://www.inkscape.org/namespaces/inkscape"
   width="63.5mm"
   height="63.5mm"
   viewBox="0 0 63.499998 63.5"
   version="1.1"
   id="svg8"
   inkscape:version="0.92.5 (2060ec1f9f, 2020-04-08)"
   sodipodi:docname="Logo seul.svg"
   inkscape:export-filename="F:\Textes\Editions du Renard\Logo v2 blanc v1.png"
   inkscape:export-xdpi="300.01999"
   inkscape:export-ydpi="300.01999">
  <defs
     id="defs2" />
  <sodipodi:namedview
     id="base"
     pagecolor="#ffffff"
     bordercolor="#666666"
     borderopacity="1.0"
     inkscape:pageopacity="0.0"
     inkscape:pageshadow="2"
     inkscape:zoom="0.99476687"
     inkscape:cx="588.29271"
     inkscape:cy="71.348992"
     inkscape:document-units="mm"
     inkscape:current-layer="layer5"
     inkscape:document-rotation="0"
     showgrid="true"
     inkscape:window-width="1697"
     inkscape:window-height="919"
     inkscape:window-x="156"
     inkscape:window-y="114"
     inkscape:window-maximized="0">
    <inkscape:grid
       type="xygrid"
       id="grid10"
       originx="-3.8146971e-06"
       originy="-3.3226983e-14" />
  </sodipodi:namedview>
  <metadata
     id="metadata5">
    <rdf:RDF>
      <cc:Work
         rdf:about="">
        <dc:format>image/svg+xml</dc:format>
        <dc:type
           rdf:resource="http://purl.org/dc/dcmitype/StillImage" />
        <dc:title></dc:title>
      </cc:Work>
    </rdf:RDF>
  </metadata>
  <g
     inkscape:groupmode="layer"
     id="layer2"
     inkscape:label="Casque"
     style="display:inline"
     transform="translate(-1.9073486e-6,1.9073486e-6)" />
  <g
     inkscape:groupmode="layer"
     id="layer5"
     inkscape:label="Fond"
     transform="translate(-1.9073486e-6,1.9073486e-6)" />
  <g
     inkscape:groupmode="layer"
     id="layer3"
     inkscape:label="Casque 2"
     transform="translate(-1.9073486e-6,1.9073486e-6)" />
  <g
     inkscape:label="Renard"
     inkscape:groupmode="layer"
     id="layer1"
     transform="translate(-1.9073486e-6,1.9073486e-6)">
    <circle
       style="display:inline;fill:#808080;fill-opacity:1;stroke:none;stroke-width:0.26458299"
       id="path848"
       cx="31.750002"
       cy="31.749998"
       r="31.75" />
    <circle
       style="fill:#000000;fill-opacity:1;stroke:none;stroke-width:0.26458299"
       id="path869"
       cx="31.750002"
       cy="31.749998"
       r="29.104166" />
    <path
       style="fill:#808080;fill-opacity:1;stroke:none;stroke-width:0.26458299px;stroke-linecap:butt;stroke-linejoin:miter;stroke-opacity:1"
       d="M 7.937501,15.875 H 15.875 l 13.229167,13.229166 h 5.291667 L 47.625,15.875 h 7.9375 V 34.395833 L 34.395834,55.562499 v -2.645833 h -5.291667 v 2.645833 L 7.937501,34.395833 V 15.875"
       id="path12"
       inkscape:connector-curvature="0" />
    <g
       id="g875"
       style="fill:#ffffff;fill-opacity:1"
       transform="translate(-5.291666,2.645833)">
      <path
         id="path850"
         d="m 13.229167,31.75 v 5.291666 L 31.75,55.562499 h 2.645833 v -2.645833 z"
         style="fill:#ffffff;fill-opacity:1;stroke:none;stroke-width:0.26458299px;stroke-linecap:butt;stroke-linejoin:miter;stroke-opacity:1"
         inkscape:connector-curvature="0" />
      <path
         id="path852"
         d="M 18.520833,15.875 V 26.458333 H 29.104166 Z"
         style="fill:#ffffff;fill-opacity:1;stroke:none;stroke-width:0.26458299px;stroke-linecap:butt;stroke-linejoin:miter;stroke-opacity:1"
         inkscape:connector-curvature="0" />
      <path
         id="path854"
         d="M 55.562499,15.875 44.979166,26.458333 h 10.583333 z"
         style="fill:#ffffff;fill-opacity:1;stroke:none;stroke-width:0.26458299px;stroke-linecap:butt;stroke-linejoin:miter;stroke-opacity:1"
         inkscape:connector-curvature="0" />
      <path
         id="path856"
         d="m 60.854166,31.75 v 5.291666 L 42.333333,55.562499 H 39.6875 v -2.645833 z"
         style="fill:#ffffff;fill-opacity:1;stroke:none;stroke-width:0.26458299px;stroke-linecap:butt;stroke-linejoin:miter;stroke-opacity:1"
         inkscape:connector-curvature="0" />
    </g>
    <g
       style="fill:#000000;fill-opacity:1"
       id="g880"
       transform="translate(-5.291666,2.645833)">
      <rect
         y="34.395832"
         x="23.8125"
         height="5.2916665"
         width="5.2916665"
         id="rect858"
         style="fill:#000000;fill-opacity:1;stroke:none;stroke-width:0.26458299" />
      <rect
         y="34.395832"
         x="44.979168"
         height="5.2916665"
         width="5.2916665"
         id="rect860"
         style="fill:#000000;fill-opacity:1;stroke:none;stroke-width:0.26458299" />
      <rect
         y="50.270832"
         x="34.395832"
         height="5.2916665"
         width="5.2916665"
         id="rect863"
         style="fill:#000000;fill-opacity:1;stroke:none;stroke-width:0.26458299" />
    </g>
  </g>
</svg>

<?xml version="1.0" encoding="UTF-8"?>
<svg width="63.5mm" height="63.5mm" version="1.1" viewBox="0 0 63.5 63.5" xmlns="http://www.w3.org/2000/svg">
 <g transform="translate(-1.9073e-6 1.9073e-6)">
  <circle cx="31.75" cy="31.75" r="31.75" fill="#808080"/>
  <circle cx="31.75" cy="31.75" r="29.104"/>
  <path d="m7.9375 15.875h7.9375l13.229 13.229h5.2917l13.229-13.229h7.9375v18.521l-21.167 21.167v-2.6458h-5.2917v2.6458l-21.167-21.167v-18.521" fill="#808080"/>
  <g transform="translate(-5.2917 2.6458)" fill="#fff">
   <path d="m13.229 31.75v5.2917l18.521 18.521h2.6458v-2.6458z"/>
   <path d="m18.521 15.875v10.583h10.583z"/>
   <path d="m55.562 15.875-10.583 10.583h10.583z"/>
   <path d="m60.854 31.75v5.2917l-18.521 18.521h-2.6458v-2.6458z"/>
  </g>
  <g transform="translate(-5.2917 2.6458)">
   <rect x="23.812" y="34.396" width="5.2917" height="5.2917"/>
   <rect x="44.979" y="34.396" width="5.2917" height="5.2917"/>
   <rect x="34.396" y="50.271" width="5.2917" height="5.2917"/>
  </g>
 </g>
</svg>
